.local/share/icons/Gruvbox-Plus-Dark/panel/24/pomodoro-start-light.svg

<svg xmlns="http://www.w3.org/2000/svg" width="24" height="24" version="1.1">
 <defs>
  <style id="current-color-scheme" type="text/css">
   .ColorScheme-Text { color:#ebdbb2; } .ColorScheme-Highlight { color:#458588; }
  </style>
 </defs>
 <path style="fill:currentColor" class="ColorScheme-Text" d="M 12,3 C 9.8724,3 7.9155,3.73435 6.375,4.96875 L 4.5625,3.15625 3.15625,4.5625 4.96875,6.375 C 3.73435,7.9155 3,9.8724 3,12 c 0,4.971 4.0294,9 9,9 4.971,0 9,-4.029 9,-9 C 21,9.8724 20.26625,7.9155 19.03125,6.375 L 20.84375,4.5625 19.4375,3.15625 17.625,4.96875 C 16.084,3.73435 14.128,3 12,3 Z m 0,2 c 3.866,0 7,3.134 7,7 0,3.866 -3.134,7 -7,7 C 8.134,19 5,15.866 5,12 5,8.134 8.134,5 12,5 Z m -2,3 v 8 l 6,-4 z"/>
</svg>

<svg width="24" height="24" version="1.1" xmlns="http://www.w3.org/2000/svg">
  <defs>
    <style id="current-color-scheme" type="text/css">.ColorScheme-Text { color:#ebdbb2; } .ColorScheme-Highlight { color:#458588; } .ColorScheme-NeutralText { color:#fe8019; } .ColorScheme-PositiveText { color:#689d6a; } .ColorScheme-NegativeText { color:#fb4934; }</style>
  </defs>
  <path class="ColorScheme-Text" d="m12 3c-2.128 0-4.084 0.7344-5.625 1.969l-1.812-1.812-1.406 1.406 1.812 1.812c-1.234 1.54-1.969 3.497-1.969 5.625 0 4.971 4.029 9 9 9 4.971 0 9-4.029 9-9 0-2.128-0.7338-4.084-1.969-5.625l1.812-1.812-1.406-1.406-1.812 1.812c-1.541-1.234-3.497-1.969-5.625-1.969zm0 2c3.866 0 7 3.134 7 7s-3.134 7-7 7-7-3.134-7-7 3.134-7 7-7zm-2 3v8l6-4z" fill="currentColor"/>
</svg>
